src/components/Icon/svg-icon/main/add-to-group.svg

<svg xmlns="http://www.w3.org/2000/svg" width="24" height="24"><path fill="#677078" d="M8 10H5V7H3v3H0v2h3v3h2v-3h3v-2zm10 1c1.66 0 2.99-1.34 2.99-3S19.66 5 18 5c-.32 0-.63.05-.91.14.57.81.9 1.79.9 2.86 0 1.07-.34 2.04-.9 2.86.28.09.59.14.91.14zm-5 0c1.66 0 2.99-1.34 2.99-3S14.66 5 13 5c-1.66 0-3 1.34-3 3s1.34 3 3 3zm6.62 2.16c.83.73 1.38 1.66 1.38 2.84v2h3v-2c0-1.54-2.37-2.49-4.38-2.84zM13 13c-2 0-6 1-6 3v2h12v-2c0-2-4-3-6-3z"/></svg>

<svg xmlns="http://www.w3.org/2000/svg" width="24" height="24" viewBox="0 0 24 24">
  <path fill="#677078" d="M8,10 L5,10 L5,7 L3,7 L3,10 L0,10 L0,12 L3,12 L3,15 L5,15 L5,12 L8,12 L8,10 Z M18,11 C19.66,11 20.99,9.66 20.99,8 C20.99,6.34 19.66,5 18,5 C17.68,5 17.37,5.05 17.09,5.14 C17.66,5.95 17.99,6.93 17.99,8 C17.99,9.07 17.65,10.04 17.09,10.86 C17.37,10.95 17.68,11 18,11 Z M13,11 C14.66,11 15.99,9.66 15.99,8 C15.99,6.34 14.66,5 13,5 C11.34,5 10,6.34 10,8 C10,9.66 11.34,11 13,11 Z M19.62,13.16 C20.45,13.89 21,14.82 21,16 L21,18 L24,18 L24,16 C24,14.46 21.63,13.51 19.62,13.16 Z M13,13 C11,13 7,14 7,16 L7,18 L19,18 L19,16 C19,14 15,13 13,13 Z"/>
</svg>
